folder-cog.svg

<svg fill="currentColor" viewBox="0 0 24 24"><path d="M4 4c-1.11 0-2 .89-2 2v12a2 2 0 0 0 2 2h8.08a7 7 0 0 1-.08-1 7 7 0 0 1 7-7 7 7 0 0 1 3 .69V8a2 2 0 0 0-2-2h-8l-2-2zm14 10a.26.26 0 0 0-.26.21l-.19 1.32c-.3.13-.59.29-.85.47l-1.24-.5c-.11 0-.24 0-.31.13l-1 1.73c-.06.11-.04.24.06.32l1.06.82a4.2 4.2 0 0 0 0 1l-1.06.82a.26.26 0 0 0-.06.32l1 1.73c.06.13.19.13.31.13l1.24-.5c.26.18.54.35.85.47l.19 1.32c.02.12.12.21.26.21h2c.11 0 .22-.09.24-.21l.19-1.32c.3-.13.57-.29.84-.47l1.23.5c.13 0 .26 0 .33-.13l1-1.73a.26.26 0 0 0-.06-.32l-1.07-.82c.02-.17.04-.33.04-.5s-.01-.33-.04-.5l1.06-.82a.26.26 0 0 0 .06-.32l-1-1.73c-.06-.13-.19-.13-.32-.13l-1.23.5c-.27-.18-.54-.35-.85-.47l-.19-1.32A.236.236 0 0 0 20 14zm1 3.5c.83 0 1.5.67 1.5 1.5s-.67 1.5-1.5 1.5c-.84 0-1.5-.67-1.5-1.5s.67-1.5 1.5-1.5"/></svg>

<svg  viewBox="0 0 24 24" fill="currentColor"><path  d="M4 4C2.89 4 2 4.89 2 6V18C2 19.11 2.9 20 4 20H12.08A7 7 0 0 1 12 19A7 7 0 0 1 19 12A7 7 0 0 1 22 12.69V8C22 6.89 21.1 6 20 6H12L10 4H4M18 14C17.87 14 17.76 14.09 17.74 14.21L17.55 15.53C17.25 15.66 16.96 15.82 16.7 16L15.46 15.5C15.35 15.5 15.22 15.5 15.15 15.63L14.15 17.36C14.09 17.47 14.11 17.6 14.21 17.68L15.27 18.5C15.25 18.67 15.24 18.83 15.24 19C15.24 19.17 15.25 19.33 15.27 19.5L14.21 20.32C14.12 20.4 14.09 20.53 14.15 20.64L15.15 22.37C15.21 22.5 15.34 22.5 15.46 22.5L16.7 22C16.96 22.18 17.24 22.35 17.55 22.47L17.74 23.79C17.76 23.91 17.86 24 18 24H20C20.11 24 20.22 23.91 20.24 23.79L20.43 22.47C20.73 22.34 21 22.18 21.27 22L22.5 22.5C22.63 22.5 22.76 22.5 22.83 22.37L23.83 20.64C23.89 20.53 23.86 20.4 23.77 20.32L22.7 19.5C22.72 19.33 22.74 19.17 22.74 19C22.74 18.83 22.73 18.67 22.7 18.5L23.76 17.68C23.85 17.6 23.88 17.47 23.82 17.36L22.82 15.63C22.76 15.5 22.63 15.5 22.5 15.5L21.27 16C21 15.82 20.73 15.65 20.42 15.53L20.23 14.21C20.22 14.09 20.11 14 20 14H18M19 17.5C19.83 17.5 20.5 18.17 20.5 19C20.5 19.83 19.83 20.5 19 20.5C18.16 20.5 17.5 19.83 17.5 19C17.5 18.17 18.17 17.5 19 17.5Z"/></svg>
